symbolic/32x32/apps/org.gnome.Fractal.svg

<svg xmlns="http://www.w3.org/2000/svg" width="32" height="32" version="1">
 <path style="fill:#3c6eac" d="M 28.443833,4 C 29.305615,4 29.9994,4.8882 29.9994,5.75 l 0,17.5 c 0,0.862 -0.694385,1.717 -1.555567,1.75 L 19.548458,25 16.050772,23.182819 12.605913,23.933921 9.2161196,23.072687 5.3731472,23.45815 C 4.5154693,23.544178 4.2430887,22.79029 4.2577092,21.928414 L 4.4779735,8.9438326 c 0.014617,-0.861676 1.4905577,-1.3858124 2.2718257,-1.75 L 13.601322,4 Z"/>
 <path style="fill:#47f6f4" d="M 3.5566406 4 C 2.694659 4 2 4.8882 2 5.75 L 2 23.25 C 2 24.112 2.694659 25 3.5566406 25 L 8.5 25 L 12 29 L 15.5 25 L 19.890625 25 C 20.74591 24.426916 21.602736 23.792021 22.460938 23.080078 C 26.319717 19.724313 27.494146 13.531546 23.916016 9.5292969 C 21.468806 6.7922259 16.993068 5.9705677 14.142578 8.5898438 C 12.245978 10.332992 11.68293 13.489069 13.5625 15.462891 C 14.77452 16.73586 16.947204 17.106905 18.277344 15.792969 C 19.104434 14.975926 19.339633 13.328047 18.445312 12.464844 C 17.913053 11.950889 16.980016 11.806859 16.441406 12.394531 C 16.135056 12.726781 16.054031 13.503944 16.425781 13.822266 C 16.623001 13.990615 16.960019 14.034056 17.136719 13.810547 C 17.223439 13.700958 17.247611 13.514098 17.119141 13.423828 C 17.061401 13.383888 16.967481 13.375006 16.925781 13.441406 C 16.914081 13.467136 16.911659 13.510634 16.943359 13.527344 C 16.955059 13.533984 16.978516 13.534824 16.978516 13.521484 L 16.978516 13.511719 L 16.978516 13.509766 C 16.961816 13.504846 16.978516 13.500606 16.978516 13.5 C 16.990216 13.49438 17.005859 13.505968 17.005859 13.517578 C 17.012559 13.550878 16.981172 13.581191 16.951172 13.587891 C 16.872702 13.605742 16.817481 13.530791 16.800781 13.462891 C 16.774921 13.309663 16.920397 13.194444 17.060547 13.177734 C 17.343697 13.144673 17.552266 13.413104 17.572266 13.671875 C 17.609806 14.159484 17.145473 14.509587 16.695312 14.529297 C 15.898263 14.564438 15.342872 13.804108 15.326172 13.064453 C 15.304812 11.822228 16.497196 10.964003 17.660156 10.970703 C 19.530566 10.981218 20.804866 12.778642 20.759766 14.535156 C 20.691516 17.258739 18.061188 19.107618 15.486328 19 C 11.617378 18.838434 8.79294 15.08238 9 11.417969 C 9.1888356 8.0675 11.391739 5.4242052 14.263672 4 L 3.5566406 4 z"/>
 <path style="opacity:0.2" d="m 29.9994,23.25 0,1 c 0,0.862 -0.693585,1.717 -1.554667,1.75 l -12.944722,0 -3.499925,4 -3.4999254,-4 -4.944894,0 C 2.693285,26 2.0002999,25.112 2.0002999,24.25 l 0,-1 c 0,0.862 0.6929851,1.75 1.5549667,1.75 l 4.944894,0 3.4999254,4 3.499925,-4 12.944722,0 C 29.306415,24.967 30,24.112 30,23.25 Z"/>
 <path style="opacity:0.1;fill:#ffffff" d="M 28.444733,4 C 29.306515,4 29.9994,4.8882 29.9994,5.75 l 0,1 C 29.9994,5.8882 29.306515,5 28.444733,5 L 3.5552666,5 C 2.693285,5 2.0002999,5.8882 2.0002999,6.75 l 0,-1 C 2.0002999,4.8882 2.693285,4 3.5552666,4 L 28.444733,4 Z"/>
 <path style="opacity:0.2" d="M 12.654297 5 C 10.607239 6.5132559 9.151378 8.7321023 9 11.417969 C 8.983286 11.713762 8.9938787 12.009638 9.015625 12.304688 C 9.2482367 9.009318 11.425023 6.4076993 14.263672 5 L 12.654297 5 z M 17.660156 10.970703 C 16.497196 10.964003 15.304812 11.822228 15.326172 13.064453 C 15.329524 13.212919 15.369706 13.358421 15.414062 13.501953 C 15.61939 12.826706 16.194924 12.323943 16.873047 12.101562 C 16.955023 12.069469 17.040291 12.047084 17.126953 12.033203 C 17.302766 11.995028 17.481208 11.969672 17.660156 11.970703 C 19.32808 11.980075 20.515689 13.411642 20.722656 14.966797 C 20.740844 14.825101 20.756084 14.682116 20.759766 14.535156 C 20.804866 12.778642 19.530566 10.981213 17.660156 10.970703 z M 12.435547 12.990234 C 12.307163 14.227682 12.635385 15.489285 13.5625 16.462891 C 14.77452 17.73586 16.947204 18.106905 18.277344 16.792969 C 18.847529 16.22971 19.125589 15.274851 18.957031 14.451172 C 18.857297 14.964702 18.622861 15.451649 18.277344 15.792969 C 16.947204 17.106905 14.77452 16.73586 13.5625 15.462891 C 12.885333 14.751766 12.530475 13.886911 12.435547 12.990234 z M 17.060547 13.177734 C 16.920397 13.194444 16.774921 13.309663 16.800781 13.462891 C 16.817481 13.530791 16.872702 13.605741 16.951172 13.587891 C 16.981172 13.581191 17.012559 13.550878 17.005859 13.517578 C 17.005859 13.505998 16.990216 13.4944 16.978516 13.5 C 16.978516 13.5006 16.961816 13.504866 16.978516 13.509766 L 16.978516 13.511719 L 16.978516 13.521484 C 16.978516 13.534884 16.955059 13.533944 16.943359 13.527344 C 16.911659 13.510634 16.914081 13.467136 16.925781 13.441406 C 16.967481 13.375006 17.061401 13.383888 17.119141 13.423828 C 17.247613 13.514098 17.223439 13.700958 17.136719 13.810547 C 16.960019 14.034057 16.623001 13.990615 16.425781 13.822266 C 16.370919 13.775287 16.32884 13.716404 16.292969 13.652344 C 16.189067 13.892272 16.157069 14.186146 16.220703 14.443359 C 16.366936 14.501391 16.523713 14.536862 16.695312 14.529297 C 16.738409 14.52741 16.779362 14.507774 16.822266 14.5 C 16.815998 14.486697 16.80411 14.476424 16.800781 14.462891 C 16.774921 14.309663 16.920397 14.194444 17.060547 14.177734 C 17.163841 14.165674 17.252169 14.20278 17.330078 14.255859 C 17.487435 14.106317 17.590363 13.90694 17.572266 13.671875 C 17.552266 13.413104 17.343697 13.144674 17.060547 13.177734 z M 17.015625 14.392578 C 16.979715 14.393666 16.946631 14.408206 16.925781 14.441406 C 16.920978 14.451969 16.933551 14.463095 16.933594 14.476562 C 16.988875 14.459926 17.040038 14.441662 17.091797 14.416016 C 17.067576 14.404589 17.042092 14.391777 17.015625 14.392578 z M 26.044922 15.746094 C 25.906331 18.491508 24.59848 21.221176 22.460938 23.080078 C 21.602735 23.792021 20.74591 24.426916 19.890625 25 L 21.291016 25 C 21.680515 24.706802 22.070853 24.403682 22.460938 24.080078 C 24.85846 21.995086 26.215959 18.815597 26.044922 15.746094 z"/>
</svg>

<svg xmlns="http://www.w3.org/2000/svg" width="32" height="32" version="1"><path style="fill:#3c6eac" d="M28.444 4c.862 0 1.555.888 1.555 1.75v17.5c0 .862-.694 1.717-1.555 1.75h-8.896l-3.497-1.817-3.445.75-3.39-.86-3.843.385c-.858.086-1.13-.668-1.115-1.53l.22-12.984c.015-.862 1.49-1.386 2.272-1.75L13.6 4z"/><path style="fill:#47f6f4" d="M3.557 4C2.695 4 2 4.888 2 5.75v17.5c0 .862.695 1.75 1.557 1.75H8.5l3.5 4 3.5-4h4.39a31.34 31.34 0 0 0 2.57-1.92c3.86-3.356 5.034-9.548 1.456-13.55-2.447-2.738-6.923-3.56-9.773-.94-1.897 1.743-2.46 4.9-.58 6.873 1.212 1.273 3.384 1.644 4.714.33.827-.817 1.063-2.465.168-3.328-.532-.514-1.465-.658-2.004-.07-.306.332-.387 1.109-.015 1.427.197.169.534.212.71-.011.087-.11.112-.297-.017-.387-.058-.04-.152-.049-.193.017-.012.026-.014.07.017.086.012.007.036.008.036-.006v-.011c-.017-.005 0-.01 0-.01.011-.006.027.006.027.018.007.033-.025.063-.055.07-.078.018-.134-.057-.15-.125-.026-.153.12-.269.26-.285.283-.033.491.235.511.494.038.487-.427.838-.877.857-.797.035-1.352-.725-1.369-1.465-.021-1.242 1.171-2.1 2.334-2.093 1.87.01 3.145 1.808 3.1 3.564-.068 2.724-2.699 4.573-5.274 4.465-3.869-.162-6.693-3.918-6.486-7.582.189-3.35 2.392-5.994 5.264-7.418H3.557z"/><path style="opacity:.2" d="M30 23.25v1c0 .862-.694 1.717-1.555 1.75H15.5L12 30l-3.5-4H3.555C2.693 26 2 25.112 2 24.25v-1c0 .862.693 1.75 1.555 1.75H8.5l3.5 4 3.5-4h12.945c.861-.033 1.555-.888 1.555-1.75z"/><path style="opacity:.1;fill:#fff" d="M28.445 4c.862 0 1.554.888 1.554 1.75v1C30 5.888 29.307 5 28.445 5H3.555C2.693 5 2 5.888 2 6.75v-1C2 4.888 2.693 4 3.555 4h24.89z"/><path style="opacity:.2" d="M12.654 5C10.607 6.513 9.151 8.732 9 11.418c-.017.296-.006.592.016.887.232-3.296 2.409-5.897 5.248-7.305h-1.61zm5.006 5.97c-1.163-.006-2.355.852-2.334 2.094.004.149.044.294.088.438.205-.675.78-1.178 1.459-1.4a1.23 1.23 0 0 1 .254-.069c.176-.038.354-.063.533-.062 1.668.01 2.856 1.44 3.063 2.996a4.2 4.2 0 0 0 .037-.432c.045-1.756-1.23-3.554-3.1-3.564zm-5.224 2.02c-.129 1.238.2 2.5 1.127 3.473 1.212 1.273 3.384 1.644 4.714.33.57-.563.849-1.518.68-2.342-.1.514-.334 1-.68 1.342-1.33 1.314-3.502.943-4.715-.33a4.169 4.169 0 0 1-1.126-2.473zm4.625.188c-.14.016-.286.132-.26.285.016.068.072.143.15.125.03-.007.062-.037.055-.07 0-.012-.016-.024-.027-.018 0 0-.017.005 0 .01v.012c0 .013-.024.012-.036.005-.031-.016-.029-.06-.017-.086.041-.066.135-.057.193-.017.129.09.104.277.018.387-.177.223-.514.18-.711.011a.613.613 0 0 1-.133-.17 1.28 1.28 0 0 0-.072.791c.146.058.303.094.474.086.043-.002.084-.021.127-.029-.006-.013-.018-.024-.021-.037-.026-.153.12-.269.26-.285a.39.39 0 0 1 .27.078.72.72 0 0 0 .241-.584c-.02-.259-.228-.527-.511-.494zm-.045 1.215a.105.105 0 0 0-.09.048c-.005.011.008.022.008.036a.99.99 0 0 0 .158-.061c-.024-.011-.05-.024-.076-.023zm9.029 1.353c-.139 2.746-1.447 5.475-3.584 7.334A31.34 31.34 0 0 1 19.89 25h1.4c.39-.293.78-.596 1.17-.92 2.397-2.085 3.755-5.264 3.584-8.334z"/></svg>
